X:1
T:Title
%%score { ( 1 3 ) | ( 2 4 5 ) }
L:1/8
M:6/4
K:Eb
V:1 treble nm="Grand Piano"
V:3 treble 
V:2 bass 
V:4 bass 
V:5 bass 
V:1
 z6 z4[Q:1/4=114] E2 | G4 G2 G2 F2 G2 | A2 [FA]2 [EA]2 [DA]6 | [Fd]3 [Ac] [GB]2 [Ac] [GB]3 [FA]2 | %4
 G6- G4 E2 | G4 G2 G2 F2 G2 | A2 [FA]2 [EA]2 [DA]6 | [Fd]3 [Ac] [GB]2 [FA] [EG]3 [DF]2 | %8
 E6- E4 E2 | c3 c c2 c2 d2 c2 | c2 B2 =A2 B4 B2 | [GB]2 [FA]2 [FA]2 [FA]2 [GB]2 [FA]2 | %12
 [FA]2 G2 _G2 =G4 E2 | c3 c c2 c2 d2 c2 | c2 B2 =A2 B6 | z6 z d3 z2 | B12 | %17
 [GB]3 [Gc] [Gd]2 [Ge] [Gf]3 [Ge]2 | d12 | f3 [Ae] [Ad]2 [Ac] [GB]3 [FA]2 | G12 | %21
 [GB]3 [Gc] [Gd]2 [Ge]2 [Ad]2 [Be]2 | f2 e2 c2 e6 | e3 B A2 [EG] [EG]3 [DF]2 |[M:5/4] E2- E2- E6 |] %25
V:2
 z6 z4 [E,G,]2 | [E,B,E]4 [E,B,E]2 [E,B,E]2 [A,B,D]2 [G,B,E]2 | [F,B,D]2 [D,B,]2 [C,B,]2 [B,,B,]6 | %3
 [B,,B,]3 [B,,B,] [B,,B,]2 [B,,B,] [B,,B,]3 [B,,B,]2 | [E,B,E]6- [E,B,E]4 [E,G,]2 | %5
 [E,B,E]4 [E,B,E]2 [E,B,E]2 [A,B,D]2 [G,B,E]2 | [F,B,D]2 [D,B,]2 [C,B,]2 [B,,B,]6 | %7
 [B,,B,]3 [B,,B,] [B,,B,]2 [B,,B,] [B,,B,]3 [B,,A,]2 | [E,G,]6- [E,G,]4 [E,G,]2 | %9
 [A,E]3 [A,E] [A,E]2 [A,E]2 [A,B,E]2 [A,E]2 | [E,A,E]2 [E,G,E]2 [E,_G,E]2 [E,=G,E]4 [E,G,E]2 | %11
 [B,,B,]2 [B,,B,]2 [B,,B,]2 [B,,B,]2 [B,,B,]2 [B,,B,]2 | %12
 [E,A,]2 [E,B,E]2 [E,=A,E]2 [E,B,E]4 [E,G,]2 | [A,E]3 [A,E] [A,E]2 [A,E]2 [A,B,E]2 [A,E]2 | %14
 [E,A,E]2 [E,G,E]2 [E,_G,E]2 [E,=G,E]6 | z6 z F3 z2 | z2 z[K:treble] EFG[K:bass] .B,,6 | %17
 [E,E]3 [E,E] [E,E]2 [E,B,] [E,B,]3 [E,B,]2 | [F,B,]3 [F,B,] [B,,B,]2 .[B,F]6 | %19
 [B,,DA]3 [B,,C] [B,,B,]2 [B,,B,] [B,,B,]3 [B,,B,]2 | [E,B,E]3 [E,B,] [E,B,]2 .[E,B,]6 | %21
 [E,E]3 [E,E] [E,E]2 [E,B,]2 [F,B,]2 [G,B,]2 | [A,CA]2 [A,CA]2 [A,EA]2 [A,CA]6 | %23
 [B,G]3 [B,EG] [B,F]2[K:bass] [B,,B,] [B,,B,]3 [B,,A,]2 |[M:5/4] [E,G,]2- [E,G,]2- [E,G,]6 |] %25
V:3
 x12 | x12 | x12 | x12 | x12 | x12 | x12 | x12 | x12 | x12 | x12 | x12 | x12 | x12 | x12 | %15
 =A3 G F2 .[Ge]2 =A,2 c2 | .[B,D]6 .[DA]6 | x12 | A3 A A2 .A6 | x12 | z2 z E E2 .E6 | x12 | x12 | %23
 x12 |[M:5/4] x10 |] %25
V:4
 x12 | x12 | x12 | x12 | x12 | x12 | x12 | x12 | x12 | x12 | x12 | x12 | x12 | x12 | x12 | %15
 E6 .[F,=A,]6 | B,,6[K:treble][K:bass] z6 | x12 | x12 | x12 | x12 | x12 | x12 | x6[K:bass] x6 | %24
[M:5/4] x10 |] %25
V:5
 x12 | x12 | x12 | x12 | x12 | x12 | x12 | x12 | x12 | x12 | x12 | x12 | x12 | x12 | x12 | %15
 [F,C]3 [F,B,] [F,=A,]2 z2 F,2 [F,A,E]2 | x3[K:treble] x3[K:bass] x6 | x12 | x12 | x12 | x12 | %21
 x12 | x12 | x6[K:bass] x6 |[M:5/4] x10 |] %25

